assets/icons/18px/message-bubble.svg

<svg width="18" height="18" viewBox="0 0 18 18" fill="none" xmlns="http://www.w3.org/2000/svg">
<g clip-path="url(#clip0_448_2000)">
<path d="M3.78241 11.6596L3.46488 12.0458L3.46488 12.0458L3.78241 11.6596ZM6.66666 13.0834L6.79251 12.5995L6.66666 13.0834ZM2.87499 14.7443L2.65152 15.1916C2.67429 15.203 2.6979 15.2126 2.72213 15.2204L2.87499 14.7443ZM15.5 8.12853C15.5 9.60545 14.8074 10.8064 13.6538 11.6537C12.4898 12.5085 10.8497 13.0039 8.99999 13.0039V14.0039C11.0163 14.0039 12.8762 13.4655 14.2457 12.4597C15.6256 11.4462 16.5 9.95952 16.5 8.12853H15.5ZM2.49999 8.12853C2.49999 6.90787 3.16883 5.80643 4.33657 4.99072C5.50691 4.1732 7.15309 3.66667 8.99999 3.66667V2.66667C6.9809 2.66667 5.12708 3.2187 3.76392 4.17092C2.39816 5.12495 1.49999 6.50445 1.49999 8.12853H2.49999ZM8.99999 3.66667C10.8713 3.66667 12.5162 4.06841 13.6764 4.82582C14.8164 5.57007 15.5 6.6603 15.5 8.12853H16.5C16.5 6.28886 15.6165 4.89816 14.2231 3.98846C12.8498 3.09191 10.9947 2.66667 8.99999 2.66667V3.66667ZM4.09994 11.2733C3.09002 10.443 2.49999 9.27749 2.49999 8.12853H1.49999C1.49999 9.61804 2.25795 11.0535 3.46488 12.0458L4.09994 11.2733ZM8.99999 13.0039C8.26086 13.0039 7.54799 12.796 6.79251 12.5995L6.54081 13.5673C7.24496 13.7505 8.10283 14.0039 8.99999 14.0039V13.0039ZM6.79251 12.5995C6.54058 12.534 6.31675 12.6236 6.18563 12.6908C6.04234 12.7642 5.90075 12.8685 5.77342 12.97C5.64367 13.0733 5.50173 13.1959 5.36283 13.3142C5.22028 13.4357 5.07384 13.5588 4.92033 13.6774C4.28065 14.1715 3.66139 14.4717 3.02785 14.2683L2.72213 15.2204C3.87101 15.5893 4.86328 14.9851 5.53167 14.4687C5.70518 14.3347 5.86679 14.1986 6.01126 14.0755C6.15938 13.9493 6.28341 13.8422 6.39653 13.7521C6.51208 13.6601 6.59025 13.6071 6.64154 13.5808C6.70501 13.5483 6.65059 13.5959 6.54081 13.5673L6.79251 12.5995ZM3.09846 14.2971C3.18727 14.3414 3.24443 14.4144 3.27224 14.4808C3.28443 14.5099 3.28929 14.5334 3.29132 14.5469C3.29237 14.554 3.29279 14.5592 3.29297 14.5625C3.29306 14.5642 3.29309 14.5654 3.29311 14.5662C3.29312 14.567 3.29311 14.5675 3.29311 14.5675C3.29311 14.5675 3.29312 14.5671 3.29316 14.5664C3.2932 14.5657 3.29327 14.5646 3.29339 14.5632C3.29363 14.5604 3.29406 14.5564 3.29479 14.5511C3.29628 14.5404 3.29882 14.5261 3.30293 14.5077C3.31127 14.4705 3.32461 14.4233 3.34401 14.3655C3.42512 14.124 3.57447 13.8045 3.74525 13.4454C3.90771 13.1038 4.09022 12.725 4.20451 12.4123C4.2608 12.2582 4.31329 12.0871 4.33067 11.9262C4.34427 11.8002 4.35869 11.4861 4.09994 11.2733L3.46488 12.0458C3.30159 11.9116 3.34439 11.7453 3.33645 11.8188C3.33227 11.8575 3.31327 11.9377 3.26527 12.069C3.17098 12.327 3.01368 12.6553 2.84217 13.0159C2.67898 13.3591 2.50019 13.7371 2.39604 14.0472C2.34543 14.1979 2.29707 14.3755 2.29335 14.5456C2.28989 14.7035 2.32827 15.0301 2.65152 15.1916L3.09846 14.2971Z" fill="white"/>
</g>
<defs>
<clipPath id="clip0_448_2000">
<rect width="18" height="18" fill="white"/>
</clipPath>
</defs>
</svg>

<svg width="18" height="18" fill="none" xmlns="http://www.w3.org/2000/svg"><g clip-path="url(#clip0_448_2000)"><path d="M3.782 11.66l-.317.386.317-.386zm2.885 1.423l.126-.483-.126.483zm-3.792 1.661l-.223.448a.5.5 0 0 0 .07.028l.153-.476zM15.5 8.13c0 1.476-.693 2.677-1.846 3.525-1.164.854-2.804 1.35-4.654 1.35v1c2.016 0 3.876-.538 5.246-1.544 1.38-1.014 2.254-2.5 2.254-4.331h-1zm-13 0c0-1.221.669-2.323 1.837-3.138C5.507 4.173 7.153 3.667 9 3.667v-1c-2.02 0-3.873.552-5.236 1.504C2.398 5.125 1.5 6.504 1.5 8.129h1zM9 3.667c1.871 0 3.516.401 4.676 1.159 1.14.744 1.824 1.834 1.824 3.303h1c0-1.84-.883-3.23-2.277-4.14C12.85 3.091 10.995 2.666 9 2.666v1zm-4.9 7.606c-1.01-.83-1.6-1.996-1.6-3.144h-1c0 1.489.758 2.925 1.965 3.917l.635-.773zm4.9 1.73c-.74 0-1.452-.207-2.207-.403l-.252.967c.704.184 1.562.437 2.459.437v-1zM6.793 12.6c-.252-.066-.476.024-.607.09a2.57 2.57 0 0 0-.413.28c-.13.103-.271.226-.41.344-.143.122-.29.245-.443.363-.64.495-1.259.795-1.892.591l-.306.952c1.149.37 2.141-.235 2.81-.751.173-.134.335-.27.48-.393.147-.127.271-.234.385-.324.115-.092.193-.145.245-.171.063-.033.009.015-.101-.014l.252-.967zm-3.695 1.697a.367.367 0 0 1 .174.184.28.28 0 0 1 .021.082v.003a.113.113 0 0 1 .002-.015 1.469 1.469 0 0 1 .05-.186c.08-.241.23-.56.4-.92.163-.341.345-.72.46-1.033.056-.154.108-.325.126-.486.013-.126.028-.44-.231-.653l-.635.773c-.163-.134-.12-.3-.129-.227a1.232 1.232 0 0 1-.07.25c-.095.258-.252.586-.424.947-.163.343-.342.721-.446 1.031a1.74 1.74 0 0 0-.103.499c-.003.158.035.484.359.646l.446-.895z" fill="#fff"/></g><defs><clipPath id="clip0_448_2000"><path fill="#fff" d="M0 0H18V18H0z"/></clipPath></defs></svg>
